app/src/img/linkedin.svg

<svg enable-background="new 0 0 112.196 112.196" viewBox="0 0 112.196 112.196" xmlns="http://www.w3.org/2000/svg"><circle cx="56.098" cy="56.097" fill="#007ab9" r="56.098"/><path d="m89.616 60.611v23.128h-13.409v-21.578c0-5.418-1.936-9.118-6.791-9.118-3.705 0-5.906 2.491-6.878 4.903-.353.862-.444 2.059-.444 3.268v22.524h-13.41s.18-36.546 0-40.329h13.411v5.715c-.027.045-.065.089-.089.132h.089v-.132c1.782-2.742 4.96-6.662 12.085-6.662 8.822 0 15.436 5.764 15.436 18.149zm-54.96-36.642c-4.587 0-7.588 3.011-7.588 6.967 0 3.872 2.914 6.97 7.412 6.97h.087c4.677 0 7.585-3.098 7.585-6.97-.089-3.956-2.908-6.967-7.496-6.967zm-6.791 59.77h13.405v-40.33h-13.405z" fill="#f1f2f2"/></svg>

<?xml version="1.0" encoding="iso-8859-1"?>
<!-- Generator: Adobe Illustrator 18.0.0, SVG Export Plug-In . SVG Version: 6.00 Build 0)  -->
<!DOCTYPE svg PUBLIC "-//W3C//DTD SVG 1.1//EN" "http://www.w3.org/Graphics/SVG/1.1/DTD/svg11.dtd">
<svg version="1.1" id="Capa_1" xmlns="http://www.w3.org/2000/svg" xmlns:xlink="http://www.w3.org/1999/xlink" x="0px" y="0px"
	 viewBox="0 0 112.196 112.196" style="enable-background:new 0 0 112.196 112.196;" xml:space="preserve">
<g>
	<circle style="fill:#007AB9;" cx="56.098" cy="56.097" r="56.098"/>
	<g>
		<path style="fill:#F1F2F2;" d="M89.616,60.611v23.128H76.207V62.161c0-5.418-1.936-9.118-6.791-9.118
			c-3.705,0-5.906,2.491-6.878,4.903c-0.353,0.862-0.444,2.059-0.444,3.268v22.524H48.684c0,0,0.18-36.546,0-40.329h13.411v5.715
			c-0.027,0.045-0.065,0.089-0.089,0.132h0.089v-0.132c1.782-2.742,4.96-6.662,12.085-6.662
			C83.002,42.462,89.616,48.226,89.616,60.611L89.616,60.611z M34.656,23.969c-4.587,0-7.588,3.011-7.588,6.967
			c0,3.872,2.914,6.97,7.412,6.97h0.087c4.677,0,7.585-3.098,7.585-6.97C42.063,26.98,39.244,23.969,34.656,23.969L34.656,23.969z
			 M27.865,83.739H41.27V43.409H27.865V83.739z"/>
	</g>
</g>
<g>
</g>
<g>
</g>
<g>
</g>
<g>
</g>
<g>
</g>
<g>
</g>
<g>
</g>
<g>
</g>
<g>
</g>
<g>
</g>
<g>
</g>
<g>
</g>
<g>
</g>
<g>
</g>
<g>
</g>
</svg>
